svgs/sharp-light/bread-loaf.svg

<svg xmlns="http://www.w3.org/2000/svg" viewBox="0 0 640 512"><!--! Font Awesome Pro 6.6.0 by @fontawesome - https://fontawesome.com License - https://fontawesome.com/license (Commercial License) Copyright 2024 Fonticons, Inc. --><path d="M96 224l-32 0c-17.7 0-32-14.3-32-32c0-45.8 30.4-77.3 77.4-98.9C156.4 71.4 211.6 64 240 64s83.6 7.4 130.6 29.1c47 21.7 77.4 53.1 77.4 98.9c0 17.7-14.3 32-32 32l-32 0 0 32 0 192-64 0L96 448l0-192 0-32zm320 32l128 0 0 192-128 0 0-160 0-32zm152-32l-24 0-72.6 0c5.4-9.4 8.6-20.3 8.6-32c0-64-44-104-96-128l16 0c28.4 0 83.6 7.4 130.6 29.1c47 21.7 77.4 53.1 77.4 98.9c0 17.7-14.3 32-32 32l-8 0zM96 480l224 0 64 0 32 0 128 0 32 0 0-32 0-160 0-32c35.3 0 64-28.7 64-64C640 64 464 32 400 32L240 32C176 32 0 64 0 192c0 35.3 28.7 64 64 64l0 32 0 160 0 32 32 0z"/></svg>

<svg xmlns="http://www.w3.org/2000/svg" viewBox="0 0 640 512"><!--! Font Awesome Pro 6.4.2 by @fontawesome - https://fontawesome.com License - https://fontawesome.com/license (Commercial License) Copyright 2023 Fonticons, Inc. --><path d="M96 224H64c-17.7 0-32-14.3-32-32c0-45.8 30.4-77.3 77.4-98.9C156.4 71.4 211.6 64 240 64s83.6 7.4 130.6 29.1c47 21.7 77.4 53.1 77.4 98.9c0 17.7-14.3 32-32 32H384v32V448H320 96V256 224zm320 32H544V448H416V288 256zm152-32l-24 0-72.6 0c5.4-9.4 8.6-20.3 8.6-32c0-64-44-104-96-128h16c28.4 0 83.6 7.4 130.6 29.1c47 21.7 77.4 53.1 77.4 98.9c0 17.7-14.3 32-32 32l-8 0zM96 480H320h64 32H544h32V448 288 256c35.3 0 64-28.7 64-64C640 64 464 32 400 32H240C176 32 0 64 0 192c0 35.3 28.7 64 64 64v32V448v32H96z"/></svg>
